X:21
T: Aj Istenem, hogy búsulok,
O: Kisgörény (Maros-Torda), Bárdosi Borbála (70), 1914
Q: "Andante" 1/4=82
M:6/8
L:1/4
K:F
ff/ e/e | (d/{e/})d (d/{c/}) c | 
g (f//e//) d {d/}c/ | (d{c}) (B/{A/}) G/ G | 
g (f//e//) d/d | d d/ d/ B | 
c/ d d (B/{A/}) | G/G G/G/ z/ | 

